X:25
T: SECHS BUCKEL HEUT HAWE TANZT
N: E1021
O: Europa, Mitteleuropa, Deutschland; Frankreich, Elsass
R: Tanz - Lied
M: 3/8
L: 1/16
K: F
cc | ddccBB | A2
AAAA | GGGGGG | F4
cc | ddccBB | A2
AAAA | GGGGGG | F6 |
A4cB | A2cBA2 |
G4BA | G2BAG2 |
A4cB | A2cBA2 |
G2G2AG | G2z2

@@@ Tune index: 4709
